X:1
T:Cor mio se m'uccidete
T:Adriano Banchieri Bolognese
T:Source : Canzonette a tre voci di A.Banchieri---Venetia---R.Amadino---1597. Editor : André Vierendeels (06/03/17).
T:Notes : Original clefs : C1, C1, F4 Editorial accidentals above the staff Sub-heading :"Dolcezza amorosa"
T:Cor mio se m'uccidete
T:©
T:©
T:©
C:Adriano Banchieri Bolognese
Z:©
%%score [ 1 2 3 ]
L:1/8
Q:1/4=121
M:4/4
K:C
V:1 treble nm="Soprano 1" snm="S 1"
V:2 treble nm="Soprano 2" snm="S 2"
V:3 bass nm="Bass" snm="B"
V:1
"^1)" B4 B2 A2 | ^G4 A4 | c8- | c4 B4 | z4 c2 cc | d2 B2 A2 c2 | ^G2 GG A4- | A2 A2 ^G4 |1 A8 :|2 %9
w: Cor mio se|m'uc- ci-|de-|* te,|di- te- mi|che fa- re- te,|di- te- mi che|_ fa- re-|te?|
w: Ahi me ben|mio, non|fa-|* te,|ch'il cor mi|tor- men- ta- te,|ch'il cor mi tor-|* men- ta-|te,|
 A2 AA A4 || z2 ^cc c2 dd | B2 B2 c2 BA | B2 B2 c2 BA | B2 B2 c2 B2 | A2 A2 B4 | z2 A2 d4- | %16
w: te? Mo- ri- ro,|mo- ri- ro, mo- ri-|ro, si, si mo- ri-|ro, si, si, mo- ri-|ro, ma'in vi- ta|tor- ne- ro,|ma'in vi-|
w: te, vi- ve- ro?|vo- ve- ro, vi- ve-|ro? Si, si, vi- ve-|ro? Si, si, vi- ve-|ro? Se'a mor- te|tor- ne- ro,|se'a mor-|
 d2 c2 B2 B2 | A2 ^cc c4 | z2 AA A2 ^FF | ^G2 G2 A2 Bc | B2 ^G2 A2 Bc | B2 B2 c2 B2 | A2 A2- B4 | %23
w: * ta tor- ne-|ro, mo- ri- ro,|mo- ri- ro, mo- ri-|ro, si, si, mo- ri-|ro, si, si, mo- ri-|ro, ma'in vi- ta|tor- ne- ro,|
w: * te tor- ne-|ro, vi- ve- ro?|Vi- ve- ro, vi- ve-|ro? Si, si, vi- ve-|ro? Si, si, vi- ve-|ro? se'a mor- te|tor- ne- ro,|
 z2 A2 d4- | d2 c2 B2 B2 | ^c8 |] %26
w: ma'in vi-|* ta tor- ne-|ro.|
w: se'a mor-|* te tor- ne-|ro.|
V:2
"^2)""^1)" ^G4 G2 A2 | B4 c4 | A8 | E8 | A2 AA A4- | A2 ^G2 A4 | B4 ^c2 cc |"^-natural" d2 c2 B4 |1 %8
w: Cor mio se|m'uc- ci-|de|te,|di- te- mi che|_ fa- re-|te, di- te- mi|che fa- re-|
w: Hor su ch'io|vo mo-|ri-|re,|e sia fi- ni-|* to'il di-|re e sia fi-|ni- to'il di-|
 A8 :|2 A2 ^cc c4 || z2 AA A2 ^FF | ^G2 G2 A2 Bc | B2 ^G2 A2 Bc | B2 ^G2 A2 B2 | c2 A2 ^G2 G2 | %15
w: te?|te? Mo- ri- ro,|mo- ri- ro, mo- ri-|ro, si, si, mo- ri-|ro, si, si, mo- ri-|ro, ma'in vi- ta|tor- ne- ro, ma'in|
w: re,|re, mo- ri- ro?|mo- ri- ro, mo- ri-|ro? ha, hai, mo- ri-|ro? Hha hai, mo- ri-|ro? ma spe- ro|vi- ta'hau- ro, ma|
"^-natural""^#" A6 GF | ^G2 A2 A2 G2 | A2 AA A4 | z2 ^cc c2 dd | B2 B2 c2 BA | B2 B2 c2 BA | %21
w: vi- * *|* ta tor- ne-|ro, mo- ri- ro,|mo- ri- ro, mo- ri-|ro, si, si, mo- ri-|ro, si, si, mo- ri-|
w: spe- * *|* ro vi- ta'hau-|ro, mo- ri- ro,|mo- ri- ro, mo- ri-|ro? Ha, hai, mo- ri-|ro? Si, si, mo- ri-|
 B2 ^G2 A2 B2 | c2 A2 ^G2 G2 |"^-natural""^#" A6 GF | ^G2 A2 A2 G2 | A8 |] %26
w: ro, ma'in vi- ta|tor- ne- ro, ma'in|vi- * *|* ta tor- ne-|ro.|
w: ro? ma spe- ro|vi- ta'hau- ro, ma|spe- * *|* ro vi- ta'hau-|ro.|
V:3
"^3)""^1)" E,4 E,2 F,2 | E,4 A,,4 | A,8- | A,4 ^G,4 | z4 A,2 A,A, | D,2 E,2 F,4 | E,4 A,,2 A,,A,, | %7
w: Cor mio se|m'uc- ci-|de-|* te,|di- te- mi|che fa- re-|te, di- te- mi|
"^-natural" D,2 D,2 E,4 |1 A,,8 :|2 A,,4 z2 A,A, || A,4 z2 D,D, | E,2 E,2 A,2 G,F, | %12
w: che fa- re-|te?|te? Mo- ri-|ro, mo- ri-|ro, si, si, mo- ri-|
 G,2 E,2 A,2 G,F, | G,2 E,2 A,2 ^G,2 | A,2 F,2 E,2 E,2 | F,4 D,4 | E,6 E,2 | A,,4 z2 A,A, | %18
w: ro, si si, mo- ri-|ro, ma'in vi- ta|tor- ne- ro, ma'in|vi- ta|tor- ne-|ro, mo- ri-|
 A,4 z2 D,D, | E,2 E,2 A,2 G,F, | G,2 E,2 A,2 G,F, | G,2 E,2 A,2 ^G,2 | A,2 F,2 E,2 E,2 | F,4 D,4 | %24
w: ro, mo- ri-|ro, si, si, mo- ri-|ro, si, si, mo- ri-|ro, ma'in vi- ta|tor- ne- ro, ma'in|vi- ta|
 E,6 E,2 | A,,8 |] %26
w: tor- ne-|ro.|

